X:1
T:Pipe Sergeant John Barclay
R:March
L:1/8
C:Ian Duncan
M:6/8
K:D
[|: A | {g}f3 {gfg}f>ed | {gf}g>ag {afg}f2 a | {g}a>fd {e}A>df | {g}c<ea c<eA |
["2 of 2"{g}f3 {gfg}f>ed | {gf}g>ag {afg}f2 a | A>df {g}f<ad | {g}e<gc {Gdc}d2 ] :|]
[|: {e}A | {ag}a3 {fg}f>ed | {gf}g3 {afg}f>ed | a>fd {e}A>df | {g}c<ea c<eA |
["1"  {ag}a3 {fg}f>ed | {gf}g3 {afg}f>ed | {g}A>df {g}f<ad | {g}e<gc {Gdc}d2 ] :|]
[|: f | {gAGAG}A3 {g}B>{d}A{e}A | {g}B<de {Gdc}d2 a | {g}a>fd {e}A>df | {g}c<ea c<eA |
["2 of 4" {gAGAG}A3 {g}B>{d}A{e}A | {g}B<de {Gdc}d2 f | {g}A>df {g}f<ad | {g}e<gc {Gdc}d2 ] :|]
[|: {e}A | {g}f3 {gfg}f>ed | {gf}g3 {a}g>fe | {g}f3 {gfg}f>ed | {g}c<ea c<eA |
["1" {g}f3 {gfg}f>ed | {gf}g>ag {afg}f2 a | >df {g}f<ad | {g}e<gc {Gdc}d2 ] :|]

